X: 66
T: Miss Ann Moir's Birthday
T: Strathspey, G
L: 1/16
M: C
K: G
|: D| G3D GB3 d3e dB3| G3D G3B AA,3 A,3D| G3B AB3 GE3 D3B,| C3E D3C B,G,3 G,3:| 
|: f| g3a gB3 G3A BG3| Aa3 a3g ea3 ab3| [1 g3a gB3 G3A BG3| c3A dcBA BG3 G3:| [2 gb3 eg3 dg3 BG3| c3A dcBA BG3 G3|]
D: Kinnon and Betty Beaton, Saturday Night Lively, KB20M98
D: Natalie MacMaster, Fit As a Fiddle
D: Ray Ellis, More Like Me!, REC001, 1999
D: Donny LeBlanc, Rosining Up the Bow
